amstradcpc/_inc/system.svg

<svg xmlns="http://www.w3.org/2000/svg"><g fill="#fff"><path d="m19.496 97.512 1.452-19.184h7.942l1.6 19.184h19.602l-12.288-97.036h-25.329l-12.475 97.036zm8.246-35.195h-5.648l2.864-37.708zm54.337-61.841h-27.311v97.036h18.682v-55.263l7.726 55.262h12.132l7.423-54.961v54.961h18.681v-97.035h-27.351l-5.078 42.86zm40.73 11.808c-.012 6.687-.089 13.371-.035 20.061.035 1.093.102 2.186.165 2.972.142 1.656.272 2.161.549 3.236.283 1.063.762 2.391 1.515 3.565.354.562.752 1.096 1.343 1.742.592.646 1.377 1.402 2.205 2.109 1.705 1.476 3.563 2.614 5.428 3.599 4.076 2.253 8.126 4.478 12.229 6.762.55.348 1.134.641 1.714 1.204 1.409 1.354 1.405 2.929 1.385 4.435l.078 2.096.03 13.139c.013.96-.08 1.907-.542 2.926-.158.296-.375.571-.635.794-.828.689-1.871.87-2.902.458-.318-.132-.61-.324-.857-.562-1.04-1-.92-2.42-1.069-3.638l-.021-19.775h-20.653l.021 22.141c.017 2.718.035 5.294.624 7.957.316 1.372.821 2.799 1.587 4.076.767 1.278 1.79 2.406 2.991 3.288 1.2.88 2.576 1.513 3.663 1.889 1.088.375 1.888.494 2.688.59.8.097 1.599.202 2.402.202l20.982-.001c.951 0 1.903.043 3.075-.28 1.173-.322 2.563-.893 3.764-1.656 1.203-.765 2.218-1.72 2.917-2.745.698-1.024 1.083-2.119 1.414-3.105s.607-1.866.809-3.039c.203-1.173.332-2.64.405-4.108.07-1.468.035-2.937.035-4.406v-15.554c0-.292 0-.585-.009-1.243-.006-.657-.019-1.678-.064-2.845-.046-1.169-.125-2.481-.197-3.33-.071-.848-.135-1.231-.213-1.612-.078-.38-.173-.756-.28-1.131-.107-.374-.225-.745-.524-1.389-.298-.642-.776-1.559-1.353-2.409-.576-.851-1.249-1.637-2-2.337-.753-.7-1.583-1.313-2.508-1.946-1.913-1.298-4.045-2.626-6.103-3.767l-8.767-4.784c-.528-.288-1.049-.589-1.551-.92-.504-.331-.99-.684-1.282-.907-.526-.401-.527-.454-.748-.689-.087-.098-.171-.199-.316-.437-.33-.526-.729-1.451-.803-2.233-.052-.42-.007-.843-.007-1.268.005-3.054-.016-6.207.014-9.162-.018-.688-.001-1.474.254-2.208.118-.361.272-.711.464-1.005.995-1.33 2.185-1.525 3.498-.973.298.155.573.38.806.641s.424.558.56.878.218.662.272 1.135c.111.975.121 2.316.113 3.495v11.54h20.742c-.023-5.959.072-11.912-.067-17.877-.058-1.38-.158-2.759-.242-3.668s-.154-1.347-.241-1.782c-.09-.435-.195-.865-.318-1.292s-.26-.85-.586-1.576c-.324-.726-.836-1.754-1.507-2.67-.671-.917-1.501-1.72-2.436-2.371s-1.974-1.147-2.865-1.468c-1.753-.602-3.089-.704-4.613-.899-.747-.079-1.497-.153-2.248-.147l-17.954.144c-2.06.067-4.101.323-6.247.924-.654.2-1.268.452-1.852.761-1.175.642-2.153 1.343-3.168 2.59-.511.634-1.052 1.442-1.495 2.301-.91 1.758-1.45 3.674-1.492 5.564m50.736-11.808v15.651h10.346v81.384h20.741v-81.384h10.267v-15.651h-41.36m69.003 0h-22.083v97.036h20.711v-38.679c1.357.052 2.712-.114 4.088.31.29.104.562.261.796.461.957.821.883 1.87 1.03 2.86.18 1.991.039 3.991.089 5.984v29.063h20.709l-.019-30.335c-.033-2.99-.236-5.952-.888-8.943-.183-.675-.425-1.35-.728-2.016-.458-1.063-1.078-2.056-1.833-2.934-.755-.877-1.645-1.639-2.627-2.25-.982-.61-2.06-1.07-3.181-1.36.541-.134 1.076-.303 1.608-.508 1.065-.405 2.065-.984 2.948-1.706.882-.723 1.646-1.589 2.251-2.556.603-.966 1.051-2.031 1.321-3.139.221-.793.406-1.591.556-2.394.485-3.27.659-6.547.593-9.833v-10.16c.065-2.005-.03-4.023-.287-6.031-.124-1-.29-1.996-.467-2.822s-.367-1.483-.612-2.12c-.246-.638-.546-1.254-.895-1.839-.351-.586-.751-1.142-1.195-1.66-.695-.741-1.478-1.398-2.33-1.952-1.767-1.146-3.75-1.786-5.707-1.954-4.604-.536-9.229-.385-13.843-.523m-1.376 15.777c.978.008 1.948.019 2.929.024.468.042.948.16 1.411.37 1.347.887 1.416 2.013 1.539 3.101.087 1.221.082 2.45.124 3.677-.017 4.251.054 8.5-.05 12.75-.011.759-.074 1.516-.187 2.272-.035.353-.139.701-.305 1.016-.165.314-.393.595-.666.824-.626.564-1.46.593-2.213.682-.857.081-1.722.091-2.582.03zm50.493 81.259 1.451-19.184h7.944l1.598 19.184h19.602l-12.297-97.036h-25.326l-12.473 97.036h19.495m8.244-35.195h-5.649l2.864-37.708 2.783 37.708m71.671-55.853c-.711-1.14-1.628-2.154-2.695-2.966-1.069-.813-2.284-1.423-3.189-1.786s-1.497-.478-2.089-.582c-.594-.105-1.185-.198-1.78-.267-.596-.068-1.193-.111-2.611-.175-1.418-.062-3.656-.202-5.896-.203l-26.86-.009v97.036l32.918-.055c.819-.002 1.621-.235 2.426-.377 1.698-.305 3.192-.628 4.787-1.35.839-.377 1.742-.879 2.562-1.499.819-.619 1.558-1.356 2.254-2.493.696-1.138 1.352-2.673 1.833-4.552.48-1.877.848-4.097.843-6.319l-.144-66.231c-.005-1.512-.384-3.006-.77-4.388-.37-1.381-.868-2.645-1.577-3.784m-23.103 9.874c.441 0 .884-.035 1.31.018.429.053.838.152 1.177.258s.603.221.841.38c.237.159.446.362.612.595.718 1.076.629 2.608.692 3.965v55.884c0 .412-.002.825-.06 1.227-.061.4-.158.79-.287 1.128-.129.337-.288.626-.5.872-.209.245-.47.447-.756.609s-.587.359-.916.359h-3.392v-65.295h1.27"/><path d="m454.82 87.501h-22.646c-2.711-.085-4.807-.199-6.233-.331-1.174-.11-2.047-.505-2.715-1.247-.622-.624-.992-1.629-1.107-2.985-.134-1.593-.243-4.018-.331-7.179v-54.473c0-2.644.087-4.754.259-6.273.151-1.323.613-2.32 1.446-3.083.729-.731 1.557-1.141 2.531-1.249 1.162-.129 3.265-.196 6.25-.196h22.546v15.739h10.547v-25.748h-35.739c-2.623 0-5.268.16-7.861.478-2.763.341-5.242 1.492-7.4 3.458-2.225 2.224-3.523 4.921-3.863 8.017-.315 2.88-.475 6.402-.475 10.471v54.474c0 3.628.161 6.705.479 9.146.342 2.645 1.505 4.975 3.456 6.922 1.947 1.95 4.34 3.135 7.114 3.523 2.587.364 5.918.548 9.897.548h34.529v-25.749h-10.683v15.737z"/><path d="m535.708 17.25c0-1.896-.067-3.734-.204-5.461-.143-1.818-.562-3.458-1.244-4.877-.699-1.443-1.753-2.703-3.136-3.741-1.374-1.028-3.281-1.792-5.724-2.281-.647-.091-1.249-.16-1.809-.209-.548-.045-1.251-.089-2.114-.137-.885-.044-2.032-.067-3.417-.067h-43.742v10.009h9.145v77.017h-9.145v10.009h30.186v-10.009h-9.281v-34.11h21.884c1.904 0 3.771-.045 5.546-.135 1.865-.092 3.594-.378 5.144-.85 1.625-.494 3.074-1.346 4.306-2.534 1.233-1.188 2.203-2.822 2.888-4.881.38-1.239.619-2.632.715-4.142.089-1.46.089-3.395.002-5.712zm-11.355 3.81v12.152c0 2.304-.067 4.203-.199 5.645-.114 1.279-.447 2.276-.987 2.964-.512.654-1.393 1.118-2.617 1.38-1.394.298-3.461.45-6.142.45h-19.186v-33.165h18.651c2.624 0 4.697.088 6.17.265 1.284.152 2.234.513 2.823 1.071.58.551.97 1.506 1.16 2.836.211 1.522.317 3.677.317 6.402z"/><path d="m589.313 71.764v15.739h-22.646c-2.709-.086-4.806-.199-6.233-.332-1.171-.11-2.047-.505-2.712-1.246-.622-.625-.995-1.63-1.108-2.987-.132-1.588-.245-4.011-.331-7.178v-54.474c0-2.644.086-4.754.259-6.272.154-1.325.613-2.322 1.448-3.084.729-.732 1.558-1.141 2.528-1.249 1.162-.129 3.265-.196 6.251-.196h22.545v15.739h10.551v-25.748h-35.741c-2.623 0-5.267.16-7.859.478-2.766.341-5.244 1.492-7.402 3.458-2.224 2.224-3.523 4.921-3.861 8.016-.317 2.877-.478 6.4-.478 10.472v54.474c0 3.63.161 6.708.48 9.146.343 2.645 1.505 4.974 3.456 6.922 1.948 1.95 4.343 3.135 7.113 3.523 2.588.364 5.918.548 9.898.548h34.529v-25.749h-10.689z"/></g></svg>

<?xml version="1.0" encoding="utf-8"?>
<svg xmlns="http://www.w3.org/2000/svg">
  <path id="path7" d="M 19.496 97.512 L 20.948 78.328 L 28.89 78.328 L 30.49 97.512 L 50.092 97.512 L 37.804 0.476 L 12.475 0.476 L 0 97.512 L 19.496 97.512 M 27.742 62.317 L 22.094 62.317 L 24.958 24.609 L 27.742 62.317 M 82.079 0.476 L 54.768 0.476 L 54.768 97.512 L 73.45 97.512 L 73.45 42.249 L 81.176 97.511 L 93.308 97.511 L 100.731 42.55 L 100.731 97.511 L 119.412 97.511 L 119.412 0.476 L 92.061 0.476 L 86.983 43.336 L 82.079 0.476 M 122.809 12.284 C 122.797 18.971 122.72 25.655 122.774 32.345 C 122.809 33.438 122.876 34.531 122.939 35.317 C 123.081 36.973 123.211 37.478 123.488 38.553 C 123.771 39.616 124.25 40.944 125.003 42.118 C 125.357 42.68 125.755 43.214 126.346 43.86 C 126.938 44.506 127.723 45.262 128.551 45.969 C 130.256 47.445 132.114 48.583 133.979 49.568 C 138.055 51.821 142.105 54.046 146.208 56.33 C 146.758 56.678 147.342 56.971 147.922 57.534 C 149.331 58.888 149.327 60.463 149.307 61.969 L 149.385 64.065 L 149.415 77.204 C 149.428 78.164 149.335 79.111 148.873 80.13 C 148.715 80.426 148.498 80.701 148.238 80.924 C 147.41 81.613 146.367 81.794 145.336 81.382 C 145.018 81.25 144.726 81.058 144.479 80.82 C 143.439 79.82 143.559 78.4 143.41 77.182 L 143.389 57.407 L 122.736 57.407 L 122.757 79.548 C 122.774 82.266 122.792 84.842 123.381 87.505 C 123.697 88.877 124.202 90.304 124.968 91.581 C 125.735 92.859 126.758 93.987 127.959 94.869 C 129.159 95.749 130.535 96.382 131.622 96.758 C 132.71 97.133 133.51 97.252 134.31 97.348 C 135.11 97.445 135.909 97.55 136.712 97.55 L 157.694 97.549 C 158.645 97.549 159.597 97.592 160.769 97.269 C 161.942 96.947 163.332 96.376 164.533 95.613 C 165.736 94.848 166.751 93.893 167.45 92.868 C 168.148 91.844 168.533 90.749 168.864 89.763 C 169.195 88.777 169.471 87.897 169.673 86.724 C 169.876 85.551 170.005 84.084 170.078 82.616 C 170.148 81.148 170.113 79.679 170.113 78.21 L 170.113 62.656 C 170.113 62.364 170.113 62.071 170.104 61.413 C 170.098 60.756 170.085 59.735 170.04 58.568 C 169.994 57.399 169.915 56.087 169.843 55.238 C 169.772 54.39 169.708 54.007 169.63 53.626 C 169.552 53.246 169.457 52.87 169.35 52.495 C 169.243 52.121 169.125 51.75 168.826 51.106 C 168.528 50.464 168.05 49.547 167.473 48.697 C 166.897 47.846 166.224 47.06 165.473 46.36 C 164.72 45.66 163.89 45.047 162.965 44.414 C 161.052 43.116 158.92 41.788 156.862 40.647 L 148.095 35.863 C 147.567 35.575 147.046 35.274 146.544 34.943 C 146.04 34.612 145.554 34.259 145.262 34.036 C 144.736 33.635 144.735 33.582 144.514 33.347 C 144.427 33.249 144.343 33.148 144.198 32.91 C 143.868 32.384 143.469 31.459 143.395 30.677 C 143.343 30.257 143.388 29.834 143.388 29.409 C 143.393 26.355 143.372 23.202 143.402 20.247 C 143.384 19.559 143.401 18.773 143.656 18.039 C 143.774 17.678 143.928 17.328 144.12 17.034 C 145.115 15.704 146.305 15.509 147.618 16.061 C 147.916 16.216 148.191 16.441 148.424 16.702 C 148.657 16.963 148.848 17.26 148.984 17.58 C 149.12 17.9 149.202 18.242 149.256 18.715 C 149.367 19.69 149.377 21.031 149.369 22.21 L 149.369 33.75 L 170.111 33.75 C 170.088 27.791 170.183 21.838 170.044 15.873 C 169.986 14.493 169.886 13.114 169.802 12.205 C 169.718 11.296 169.648 10.858 169.561 10.423 C 169.471 9.988 169.366 9.558 169.243 9.131 C 169.12 8.704 168.983 8.281 168.657 7.555 C 168.333 6.829 167.821 5.801 167.15 4.885 C 166.479 3.968 165.649 3.165 164.714 2.514 C 163.779 1.863 162.74 1.367 161.849 1.046 C 160.096 0.444 158.76 0.342 157.236 0.147 C 156.489 0.068 155.739 -0.006 154.988 0 L 137.034 0.144 C 134.974 0.211 132.933 0.467 130.787 1.068 C 130.133 1.268 129.519 1.52 128.935 1.829 C 127.76 2.471 126.782 3.172 125.767 4.419 C 125.256 5.053 124.715 5.861 124.272 6.72 C 123.362 8.478 122.822 10.394 122.78 12.284 M 173.516 0.476 L 173.516 16.127 L 183.862 16.127 L 183.862 97.511 L 204.603 97.511 L 204.603 16.127 L 214.87 16.127 L 214.87 0.476 L 173.51 0.476 M 242.513 0.476 L 220.43 0.476 L 220.43 97.512 L 241.141 97.512 L 241.141 58.833 C 242.498 58.885 243.853 58.719 245.229 59.143 C 245.519 59.247 245.791 59.404 246.025 59.604 C 246.982 60.425 246.908 61.474 247.055 62.464 C 247.235 64.455 247.094 66.455 247.144 68.448 L 247.144 97.511 L 267.853 97.511 L 267.834 67.176 C 267.801 64.186 267.598 61.224 266.946 58.233 C 266.763 57.558 266.521 56.883 266.218 56.217 C 265.76 55.154 265.14 54.161 264.385 53.283 C 263.63 52.406 262.74 51.644 261.758 51.033 C 260.776 50.423 259.698 49.963 258.577 49.673 C 259.118 49.539 259.653 49.37 260.185 49.165 C 261.25 48.76 262.25 48.181 263.133 47.459 C 264.015 46.736 264.779 45.87 265.384 44.903 C 265.987 43.937 266.435 42.872 266.705 41.764 C 266.926 40.971 267.111 40.173 267.261 39.37 C 267.746 36.1 267.92 32.823 267.854 29.537 L 267.854 19.377 C 267.919 17.372 267.824 15.354 267.567 13.346 C 267.443 12.346 267.277 11.35 267.1 10.524 C 266.923 9.698 266.733 9.041 266.488 8.404 C 266.242 7.766 265.942 7.15 265.593 6.565 C 265.242 5.979 264.842 5.423 264.398 4.905 C 263.703 4.164 262.92 3.507 262.068 2.953 C 260.301 1.807 258.318 1.167 256.361 0.999 C 251.757 0.463 247.132 0.614 242.518 0.476 M 241.142 16.253 C 242.12 16.261 243.09 16.272 244.071 16.277 C 244.539 16.319 245.019 16.437 245.482 16.647 C 246.829 17.534 246.898 18.66 247.021 19.748 C 247.108 20.969 247.103 22.198 247.145 23.425 C 247.128 27.676 247.199 31.925 247.095 36.175 C 247.084 36.934 247.021 37.691 246.908 38.447 C 246.873 38.8 246.769 39.148 246.603 39.463 C 246.438 39.777 246.21 40.058 245.937 40.287 C 245.311 40.851 244.477 40.88 243.724 40.969 C 242.867 41.05 242.002 41.06 241.142 40.999 L 241.142 16.253 M 291.635 97.512 L 293.086 78.328 L 301.03 78.328 L 302.628 97.512 L 322.23 97.512 L 309.933 0.476 L 284.607 0.476 L 272.134 97.512 L 291.629 97.512 M 299.873 62.317 L 294.224 62.317 L 297.088 24.609 L 299.871 62.317 M 371.542 6.464 C 370.831 5.324 369.914 4.31 368.847 3.498 C 367.778 2.685 366.563 2.075 365.658 1.712 C 364.753 1.349 364.161 1.234 363.569 1.13 C 362.975 1.025 362.384 0.932 361.789 0.863 C 361.193 0.795 360.596 0.752 359.178 0.688 C 357.76 0.626 355.522 0.486 353.282 0.485 L 326.422 0.476 L 326.422 97.512 L 359.34 97.457 C 360.159 97.455 360.961 97.222 361.766 97.08 C 363.464 96.775 364.958 96.452 366.553 95.73 C 367.392 95.353 368.295 94.851 369.115 94.231 C 369.934 93.612 370.673 92.875 371.369 91.738 C 372.065 90.6 372.721 89.065 373.202 87.186 C 373.682 85.309 374.05 83.089 374.045 80.867 L 373.901 14.636 C 373.896 13.124 373.517 11.63 373.131 10.248 C 372.761 8.867 372.263 7.603 371.554 6.464 M 348.451 16.338 C 348.892 16.338 349.335 16.303 349.761 16.356 C 350.19 16.409 350.599 16.508 350.938 16.614 C 351.277 16.72 351.541 16.835 351.779 16.994 C 352.016 17.153 352.225 17.356 352.391 17.589 C 353.109 18.665 353.02 20.197 353.083 21.554 L 353.083 77.438 C 353.083 77.85 353.081 78.263 353.023 78.665 C 352.962 79.065 352.865 79.455 352.736 79.793 C 352.607 80.13 352.448 80.419 352.236 80.665 C 352.027 80.91 351.766 81.112 351.48 81.274 C 351.194 81.436 350.893 81.633 350.564 81.633 L 347.172 81.633 L 347.172 16.338 L 348.442 16.338" style="fill: rgb(255, 255, 255);"/>
  <path id="path11" d="M 454.82 87.501 L 432.174 87.501 C 429.463 87.416 427.367 87.302 425.941 87.17 C 424.767 87.06 423.894 86.665 423.226 85.923 C 422.604 85.299 422.234 84.294 422.119 82.938 C 421.985 81.345 421.876 78.92 421.788 75.759 L 421.788 21.286 C 421.788 18.642 421.875 16.532 422.047 15.013 C 422.198 13.69 422.66 12.693 423.493 11.93 C 424.222 11.199 425.05 10.789 426.024 10.681 C 427.186 10.552 429.289 10.485 432.274 10.485 L 454.82 10.485 L 454.82 26.224 L 465.367 26.224 L 465.367 0.476 L 429.628 0.476 C 427.005 0.476 424.36 0.636 421.767 0.954 C 419.004 1.295 416.525 2.446 414.367 4.412 C 412.142 6.636 410.844 9.333 410.504 12.429 C 410.189 15.309 410.029 18.831 410.029 22.9 L 410.029 77.374 C 410.029 81.002 410.19 84.079 410.508 86.52 C 410.85 89.165 412.013 91.495 413.964 93.442 C 415.911 95.392 418.304 96.577 421.078 96.965 C 423.665 97.329 426.996 97.513 430.975 97.513 L 465.504 97.513 L 465.504 71.764 L 454.821 71.764 L 454.821 87.501 Z" style="fill: rgb(255, 255, 255);"/>
  <path id="path13" d="M 535.708 17.25 C 535.708 15.354 535.641 13.516 535.504 11.789 C 535.361 9.971 534.942 8.331 534.26 6.912 C 533.561 5.469 532.507 4.209 531.124 3.171 C 529.75 2.143 527.843 1.379 525.4 0.89 C 524.753 0.799 524.151 0.73 523.591 0.681 C 523.043 0.636 522.34 0.592 521.477 0.544 C 520.592 0.5 519.445 0.477 518.06 0.477 L 474.318 0.477 L 474.318 10.486 L 483.463 10.486 L 483.463 87.503 L 474.318 87.503 L 474.318 97.512 L 504.504 97.512 L 504.504 87.503 L 495.223 87.503 L 495.223 53.393 L 517.107 53.393 C 519.011 53.393 520.878 53.348 522.653 53.258 C 524.518 53.166 526.247 52.88 527.797 52.408 C 529.422 51.914 530.871 51.062 532.103 49.874 C 533.336 48.686 534.306 47.052 534.991 44.993 C 535.371 43.754 535.61 42.361 535.706 40.851 C 535.795 39.391 535.795 37.456 535.708 35.139 L 535.708 17.25 Z M 524.353 21.06 L 524.353 33.212 C 524.353 35.516 524.286 37.415 524.154 38.857 C 524.04 40.136 523.707 41.133 523.167 41.821 C 522.655 42.475 521.774 42.939 520.55 43.201 C 519.156 43.499 517.089 43.651 514.408 43.651 L 495.222 43.651 L 495.222 10.486 L 513.873 10.486 C 516.497 10.486 518.57 10.574 520.043 10.751 C 521.327 10.903 522.277 11.264 522.866 11.822 C 523.446 12.373 523.836 13.328 524.026 14.658 C 524.237 16.18 524.343 18.335 524.343 21.06 Z" style="fill: rgb(255, 255, 255);"/>
  <path id="path15" d="M 589.313 71.764 L 589.313 87.503 L 566.667 87.503 C 563.958 87.417 561.861 87.304 560.434 87.171 C 559.263 87.061 558.387 86.666 557.722 85.925 C 557.1 85.3 556.727 84.295 556.614 82.938 C 556.482 81.35 556.369 78.927 556.283 75.76 L 556.283 21.286 C 556.283 18.642 556.369 16.532 556.542 15.014 C 556.696 13.689 557.155 12.692 557.99 11.93 C 558.719 11.198 559.548 10.789 560.518 10.681 C 561.68 10.552 563.783 10.485 566.769 10.485 L 589.314 10.485 L 589.314 26.224 L 599.865 26.224 L 599.865 0.476 L 564.124 0.476 C 561.501 0.476 558.857 0.636 556.265 0.954 C 553.499 1.295 551.021 2.446 548.863 4.412 C 546.639 6.636 545.34 9.333 545.002 12.428 C 544.685 15.305 544.524 18.828 544.524 22.9 L 544.524 77.374 C 544.524 81.004 544.685 84.082 545.004 86.52 C 545.347 89.165 546.509 91.494 548.46 93.442 C 550.408 95.392 552.803 96.577 555.573 96.965 C 558.161 97.329 561.491 97.513 565.471 97.513 L 600 97.513 L 600 71.764 L 589.311 71.764 Z" style="fill: rgb(255, 255, 255);"/>
</svg>
